X: 1
T: The Abbot of Unreason
T: 8x32J 3C (Milton Levy, The Tin Woodman)
P: Away to Chincoteague
C: Jim Stevenson-Mathews
C: from Andy Imbrie recording "Dance for Joy Encore!"
C: trans. T. Traub 6-30-2012
M: 6/8
L: 1/8
R: Jig
K: Am
|: z F |"Am"EAB cBc|"Am"A2 e efe|"G"d2 c B2 c|"G"dBA G2 A|"Am"EAB cBc|"Am"A2 e efe|"Dm"d2 c "E"B e2|"Am"A3 A :|
cd|"Am"e2 c Acd|"Am"efe Aec|"G"d2 c B2 c|"G"dBA Ggf|"Am"e2 c Acd|"Am"{ef}e2 c A2 f|"Dm"e2 d "E"B c2|"Am"A3 A ||
cd|"Am"e2 c Acd|"Am"eae Aec|"G"d2 c BGB|"G"def g2 a|"Am"e2 c Acd|"Am"{ef}e2 c A2 f|"Dm"e2 d "E"B c2|"Am"A3 A ||
